SVG-Logos/Frameworks-Languages-IDEs/Web Dev, Animation/lottie-logo.svg

<svg xmlns="http://www.w3.org/2000/svg" width="65" height="64" viewBox="0 0 65 64" fill="none" id="svg372263829_1534">
<g clip-path="url(#svg372263829_1534_clip0_1337_28286)">
<path d="M48.3053 0H16.6947C7.75059 0 0.5 7.25065 0.5 16.1947V47.8053C0.5 56.7493 7.75059 64 16.6947 64H48.3053C57.2493 64 64.4999 56.7493 64.4999 47.8053V16.1947C64.4999 7.25065 57.2493 0 48.3053 0Z" fill="#00DDB3"/>
<path d="M49.1457 14.3357C38.1135 14.3357 34.0445 22.201 30.7641 28.5218L28.6063 32.5616C25.1279 39.2653 22.532 43.3375 15.8413 43.3375C15.4256 43.337 15.0139 43.4185 14.6297 43.5773C14.2455 43.7361 13.8963 43.9691 13.6022 44.263C13.3081 44.5568 13.0748 44.9057 12.9156 45.2897C12.7564 45.6737 12.6744 46.0854 12.6744 46.5011C12.6744 46.9168 12.7564 47.3285 12.9156 47.7126C13.0748 48.0966 13.3081 48.4455 13.6022 48.7393C13.8963 49.0331 14.2455 49.2661 14.6297 49.4249C15.0139 49.5837 15.4256 49.6652 15.8413 49.6648C26.8736 49.6648 30.9425 41.7994 34.223 35.4786L36.3678 31.4389C39.8462 24.7352 42.442 20.663 49.1327 20.663C49.5484 20.6634 49.9602 20.5819 50.3444 20.4231C50.7286 20.2643 51.0777 20.0313 51.3719 19.7375C51.666 19.4437 51.8993 19.0948 52.0585 18.7108C52.2177 18.3267 52.2996 17.9151 52.2996 17.4993C52.2996 17.0836 52.2177 16.6719 52.0585 16.2879C51.8993 15.9038 51.666 15.5549 51.3719 15.2611C51.0777 14.9673 50.7286 14.7344 50.3444 14.5756C49.9602 14.4168 49.5484 14.3353 49.1327 14.3357H49.1457Z" fill="white"/>
</g>
<defs>
<clipPath id="svg372263829_1534_clip0_1337_28286">
<rect width="63.9999" height="64" fill="white" transform="translate(0.5)"/>
</clipPath>
</defs>
</svg>

<svg xmlns="http://www.w3.org/2000/svg" fill="none" viewBox="0 0 65 64"><g clip-path="url(#a)"><path fill="#00DDB3" d="M48.305 0h-31.61C7.75 0 .5 7.25.5 16.195v31.61C.5 56.75 7.75 64 16.695 64h31.61C57.25 64 64.5 56.75 64.5 47.805v-31.61C64.5 7.25 57.25 0 48.305 0Z"/><path fill="#fff" d="M49.146 14.336c-11.032 0-15.102 7.865-18.382 14.186l-2.158 4.04c-3.478 6.703-6.074 10.776-12.765 10.776a3.162 3.162 0 0 0-2.925 4.375 3.164 3.164 0 0 0 2.925 1.952c11.033 0 15.101-7.866 18.382-14.186l2.145-4.04c3.478-6.704 6.074-10.776 12.765-10.776a3.164 3.164 0 1 0 0-6.327h.013Z"/></g><defs><clipPath id="a"><path fill="#fff" d="M.5 0h64v64H.5z"/></clipPath></defs></svg>
